!!!OTL: Jeder f&uuml;r sich (94), S. 241
!!!id: T0254
**kern
*clefG2
*k[]
*G:
{8g
8g
=1
4g
4d
4b
=2
4b
4g
8dd
8dd
=3
4dd
4cc
4b
=4
4b
4a}
=5
{8ee
8dd
=6
2dd
4g
=7
4g
4g
8ee
8dd
=8
2dd
4g
=9
4g
4g}
=10
{8g
8g
=11
2ee
4ee
=12
8ee
8dd
4dd}
=13
{8b
8dd
=14
4dd
4cc
8a
8cc
=15
4cc
4b}
==
*-
!!!minrhy: 8
!!!meters: 3/4 ]  ZZ[4
!!!cut: Jeder f&uuml;r sich (94), S. 241
!!!reg: Luxemburg
!!!trd: Singendes Volk, Esch-Alzette 1937 posth.
!!!rhy1: XX  X_X_X_  X_X_XX  X_X_X_  X_X_
!!!rhy2: XX  X__X_  X_X_XX  X__X_  X_X_
!!!key: T0254  08  G 3/4 ]  ZZ[4
!!!mod: SECHSTONSKALA DUR ?]  AMBITUS[9
!!!kad: 2153
!!!akz: 1353_5151_66_54_
!!!fot: 'a__b__c__d__
!!!for: 'a__b__c__d__
!!!fok: '^a_\__/__^__
!! PHRAS[AUFTAKTIG]
!!!fkt: Liebeslieder
!!!bem: Merzig, hhh Anton Koob, Liederheft, 1861
!! THILL, Mathias:
!! PR[32] 2K[0] 2G[9] 3K[14] 3G[5] 4A[5] 4Ü[0] 5A[0] 6K[0] 6G[0]
!! 7K[0] 7G[0] 8A[0] MEHR[0] SI[32] ABS[22] SR[9] SP[23]
!! ST[8] 2k[5] 2g[14] 3k[9] 3g[0] 4d[5] 4ü[0] 5d[5] 6k[0] 6g[0]
!! 7k[0] 7g[0] 8d[0] mehr[0] si[36] dm[-4] sr[18] sp[18]
!! 1F[24] 2F[68] 3F[8] 4F[0] LF[0] 2P[0] 3P[0] 4P[0] TRI[0] DF[3] AB[25]
!! TF[0] U3K[0] U3[0] U4[0] U4Ü[0] U5[0] U6K[0] U6[0] U7K[0] U7[0]
!! N1[4] N2K[0] N2[9] N3K[0] N3[35] N4[13] N4Ü[0] N5[35] N6K[0] N6[4]
!!!n7k: 0] N7[0] O1[0] O2K[0] O2[0] O3K[0] O3[0] HÖ[0
!!!RNB: symbol: &uuml;  = u umlaut (UTF-8: Ã¼)
